X:1
T:Title
%%score { 1 | 2 }
L:1/8
Q:1/4=100
M:4/4
K:Eb
V:1 treble nm="Grand Piano"
V:2 bass 
V:1
 E2 E>F G2 F>E | B2 d>c B4 | B2 c>B G2 E>E | [DF]2 [DF]>[EG] [DF]3 [DF] | E2 E>F G2 F>E | %5
w: Howard~E.~Smith * * * * *|||||
 B2 d>c B3 B | B2 c>B G2 E>E | [EG]2 [EG]>[A,DF] [G,E]4 | [DAB]2 [DAB]>[DAB] [Ad]2 [Ac]>[Ad] | %9
w: ||||
 [Ge]2 [Ge]>[Ge] [GB]4 | B2 c>B G2 E>E | [DF]2 [DF]>[EG] [DF]4 | %12
w: |||
 [DAB]2 [DAB]>[DAB] [Ad]2 [Ac]>[Ad] | [Ge]2 [Ge]>[Ge] [GB]4 | B2 c>B G2 E>E | [EG]2 [EG]>[DF] E4 |] %16
w: ||||
V:2
 [E,G,]2 [E,G,]>[E,A,E] [E,B,E]2 [E,A,E]>[E,G,] | [E,G,E]2 [E,B,E]>[E,A,E] [E,G,E]4 | %2
 [E,G,E]2 [E,A,E]>[E,G,E] [E,B,E]2 [E,G,]>[E,G,] | [B,,B,]2 [B,,B,]>[B,,B,] [B,,B,]3 [B,,A,] | %4
 [E,G,]2 [E,G,]>[E,A,E] [E,B,E]2 [E,A,E]>[E,G,] | [E,G,E]2 [E,B,E]>[E,A,E] [E,G,E]3 [E,G,E] | %6
 [E,G,E]2 [E,A,E]>[E,G,E] [E,B,E]2 [E,G,]>[E,G,] | [B,,B,]2 [B,,B,]>B,, E,4 | %8
 B,,2 B,,>B,, [B,,B,]2 [B,,B,]>[B,,B,] | [E,B,]2 [E,B,]>[E,B,] [E,B,]4 | %10
 [E,G,E]2 [E,A,E]>[E,G,E] [E,B,E]2 [E,G,]>[E,G,] | [B,,B,]2 [B,,B,]>[B,,B,] [B,,B,]4 | %12
 B,,2 B,,>B,, [B,,B,]2 [B,,B,]>[B,,B,] | [E,B,]2 [E,B,]>[E,B,] [E,B,]4 | %14
 [E,G,E]2 [E,A,E]>[E,G,E] [E,B,E]2 [E,G,]>[E,G,] | [B,,B,]2 [B,,B,]>[B,,A,] [E,G,]4 |] %16

